X:45
T:Cradle Mountain
R:reel
C:Paul S. Cranford
O:Cape Breton Island
S:http://www.cranfordpub.com
D:currently unrecorded
B:currently unpublished in book form
Z:psc, (re-formatted,updated 9/17/04)
N:Cradle Mountain is an annual Summer School in Tasmania
H:                                                        copyrights Cranford Publications, SOCAN
L:1/8
Q:333
M:C|
K:D
|: DE| F2 DF EDB,D|A,D D/D/D A,DDE|FEDF E2 DE|FAdF EFGE|
F2 DF EDB,D |A,D D/D/D A,DDE| FAdB  AGFD  |EDEF D2:|
|:de|fdad fd d/d/d|f2 ed cAAc|
{c}d2fd c2ec|1BAFA E2 de|
fdad fd d/d/d|f2 ed cAAb|afed (BA)Bd|edef d2:|
[2BAFA E2 DE| FDAD FD D/D/D|GEBE GABb|afed BAFD|(ED)EF D2|]
